!!!!SEGMENT: Ano2009-Deus_in_nomine_tuo.krn
!!!id: Ano2009
!!!AGN: Motet
!!!voices: 4
!!!COM: Anonymous
!!!OTL: Deus in nomine tuo
**kern	**text	**kern	**text	**kern	**text	**kern	**text
*part4	*part4	*part3	*part3	*part2	*part2	*part1	*part1
*staff4	*staff4	*staff3	*staff3	*staff2	*staff2	*staff1	*staff1
*I"Bassus	*	*I"Tenor	*	*I"Altus	*	*I"Superius	*
*I'B	*	*I'T	*	*I'A	*	*I'S	*
*clefF4	*	*clefGv2	*	*clefG2	*	*clefG2	*
*k[b-]	*	*k[b-]	*	*k[b-]	*	*k[b-]	*
*F:	*	*F:	*	*F:	*	*F:	*
*M2/1	*	*M2/1	*	*M2/1	*	*M2/1	*
*met(C|)	*	*met(C|)	*	*met(C|)	*	*met(C|)	*
!!section: Prima pars: Deus in nomine tuo
!!!OMD: Prima pars: Deus in nomine tuo
0G	De-	1.G	De-	0d	De-	0r	.
.	.	2A	-us	.	.	.	.
=1	=1	=1	=1	=1	=1	=1	=1
1G	-us,	1B-y	in	1d	-us,	1.g	De-
1C	in	1c	no-	1e	in	.	.
.	.	.	.	.	.	2a	-us
=2	=2	=2	=2	=2	=2	=2	=2
1G	no-	1d	-mi-	1.g	no-	1b-y	in
1E	-mi-	1G	-ne	.	.	1cc	no-
.	.	.	.	2g	-mi-	.	.
=3	=3	=3	=3	=3	=3	=3	=3
1D	-ne	1A	tu-	1f	-ne	1.dd	-mi-
1BB-y	tu-	1B-y	.	1f	tu-	.	.
.	.	.	.	.	.	2dd	-ne
=4	=4	=4	=4	=4	=4	=4	=4
1.F	-o	1A	-o	1f	-o	1cc	tu-
.	.	1c	sal-	1f	sal-	1a	-o
2F	sal-	.	.	.	.	.	.
=5	=5	=5	=5	=5	=5	=5	=5
1BB-y	-vum	0B-y	-vum	1d	-vum	1f	me
[1E-i	me	.	.	2.G	me	1g	sal-
.	.	.	.	4A	.	.	.
=6	=6	=6	=6	=6	=6	=6	=6
1E-]	.	1G	me	2B-y	.	1g	-vum
.	.	.	.	2c	.	.	.
[1D	fac,	[1A	fac,	[1d	fac,	[1f	fac,
=7	=7	=7	=7	=7	=7	=7	=7
1D]	.	1A]	.	1d]	.	1f]	.
1r	.	1r	.	1r	.	1r	.
=8	=8	=8	=8	=8	=8	=8	=8
1.D	et	1.A	et	1.d	et	1.f	et
2D	in	2A	in	2d	in	2f	in
=9	=9	=9	=9	=9	=9	=9	=9
1G	ve-	1B-y	ve-	1d	ve-	1g	ve-
1F	-ri-	1c	-ri-	1f	-ri-	1a	-ri-
=10	=10	=10	=10	=10	=10	=10	=10
1D	-ta-	1d	-ta-	1f	-ta-	1a	-ta-
1G	.	1d	-te	1g	-te	1b-y	-te
=11	=11	=11	=11	=11	=11	=11	=11
1C	-te	2.e	tu-	1g	tu-	2.cc	tu-
.	.	4d	.	.	.	4b-y	.
1C	tu-	2c	-a	1e	-a	2a	-a
.	.	2B-y	iu-	.	.	2g	iu-
=12	=12	=12	=12	=12	=12	=12	=12
2D	.	2A	.	2d	iu-	2f	-di-
2E	.	2G	-di-	2c	-di-	1g	-ca
1D	-a	1A	-ca	1d	-ca	.	.
.	.	.	.	.	.	2f#i	.
=13	=13	=13	=13	=13	=13	=13	=13
2r	.	0G	me.	0d	me	0g	me.
2G	iu-	.	.	.	.	.	.
2G	-di-	.	.	.	.	.	.
2G	-ca	.	.	.	.	.	.
=14	=14	=14	=14	=14	=14	=14	=14
1F	me.	2r	.	0r	.	0r	.
.	.	2d	De-	.	.	.	.
1D	.	2d	-us	.	.	.	.
.	.	2d	ex-	.	.	.	.
=15	=15	=15	=15	=15	=15	=15	=15
2r	.	1c	-au-	0r	.	0r	.
2F	De-	.	.	.	.	.	.
2F	-us	1A	-di	.	.	.	.
2F	ex-	.	.	.	.	.	.
=16	=16	=16	=16	=16	=16	=16	=16
2E	-au-	2r	.	0r	.	0r	.
2.C	-di	2c	o-	.	.	.	.
.	.	2c	-ra-	.	.	.	.
4D	.	.	.	.	.	.	.
4E	.	2c	-ti-	.	.	.	.
4F	.	.	.	.	.	.	.
=17	=17	=17	=17	=17	=17	=17	=17
4G	o-	4B-y	-o-	0r	.	0r	.
4A	.	4A	.	.	.	.	.
2.B-y	-ra-	4G	.	.	.	.	.
.	.	4F	.	.	.	.	.
.	.	4G	.	.	.	.	.
4A	.	4A	.	.	.	.	.
[2G	-ti-	4B-y	.	.	.	.	.
.	.	4c	.	.	.	.	.
=18	=18	=18	=18	=18	=18	=18	=18
2G]	.	4d	.	0r	.	0r	.
.	.	4e	.	.	.	.	.
4F	.	2.f	-nem	.	.	.	.
4E	.	.	.	.	.	.	.
2D	-o-	.	.	.	.	.	.
.	.	4e	.	.	.	.	.
[2G	-nem	4d	.	.	.	.	.
.	.	4c	.	.	.	.	.
=19	=19	=19	=19	=19	=19	=19	=19
4G]	.	4B-y	.	0r	.	0r	.
4F	.	4A	.	.	.	.	.
4E	.	1d	me-	.	.	.	.
4D	.	.	.	.	.	.	.
1E	me-	.	.	.	.	.	.
.	.	2c#i	.	.	.	.	.
=20	=20	=20	=20	=20	=20	=20	=20
1D	-am,	0d	-am,	0r	.	0r	.
2r	.	.	.	.	.	.	.
2D	au-	.	.	.	.	.	.
=21	=21	=21	=21	=21	=21	=21	=21
2F	-ri-	2r	.	0r	.	0r	.
2F	-bus	2A	au-	.	.	.	.
2E	per-	2c	-ri-	.	.	.	.
2F	-ci-	2c	-bus	.	.	.	.
=22	=22	=22	=22	=22	=22	=22	=22
2D	-pe	2B-y	per-	0r	.	0r	.
2E	ver-	2c	-ci-	.	.	.	.
2F	.	2A	-pe	.	.	.	.
2G	-ba	2B-y	ver-	.	.	.	.
=23	=23	=23	=23	=23	=23	=23	=23
2E	o-	2c	-ba	0r	.	0r	.
2.F	-ris	2d	o-	.	.	.	.
.	.	4A	.	.	.	.	.
4G	.	4B-y	.	.	.	.	.
4A	.	4c	.	.	.	.	.
4F	.	4A	.	.	.	.	.
=24	=24	=24	=24	=24	=24	=24	=24
4G	.	4B-y	.	2r	.	0r	.
4F	.	4c	.	.	.	.	.
4E	.	2d	-ris	2g	De-	.	.
4D	.	.	.	.	.	.	.
1E	me-	4d	me-	2g	-us	.	.
.	.	4c#i	.	.	.	.	.
.	.	4c#i	.	2g	ex-	.	.
.	.	8BnXiL	.	.	.	.	.
.	.	8c#iJ	.	.	.	.	.
=25	=25	=25	=25	=25	=25	=25	=25
0D	-i,	0d	-i,	1f	-au-	2r	.
.	.	.	.	.	.	2dd	De-
.	.	.	.	1d	-di	2dd	-us
.	.	.	.	.	.	2dd	ex-
=26	=26	=26	=26	=26	=26	=26	=26
0r	.	0r	.	2r	.	1cc	-au-
.	.	.	.	2f	o-	.	.
.	.	.	.	2f	-ra-	1a	-di
.	.	.	.	2f	-ti-	.	.
=27	=27	=27	=27	=27	=27	=27	=27
0r	.	0r	.	2e	-o-	2r	.
.	.	.	.	2.c	.	2cc	o-
.	.	.	.	.	.	2cc	-ra-
.	.	.	.	4d	.	.	.
.	.	.	.	4e	.	2cc	-ti-
.	.	.	.	4f	.	.	.
=28	=28	=28	=28	=28	=28	=28	=28
0r	.	0r	.	4g	.	2b-y	-o-
.	.	.	.	4a	.	.	.
.	.	.	.	2.b-y	.	2.g	.
.	.	.	.	4a	.	4a	.
.	.	.	.	[2g	.	4b-y	.
.	.	.	.	.	.	4cc	.
=29	=29	=29	=29	=29	=29	=29	=29
0r	.	0r	.	2g]	.	4dd	.
.	.	.	.	.	.	4ee	.
.	.	.	.	2f	.	2ff	.
.	.	.	.	1g	-nem	2ee	-nem
.	.	.	.	.	.	[2dd	me-
=30	=30	=30	=30	=30	=30	=30	=30
0r	.	0r	.	1e	me-	2dd]	.
.	.	.	.	.	.	2cc#i	.
.	.	.	.	1d	-am	[1dd	-am
=31	=31	=31	=31	=31	=31	=31	=31
0r	.	0r	.	2r	.	1dd]	.
.	.	.	.	2d	au-	.	.
.	.	.	.	2e	-ri-	2r	.
.	.	.	.	2f	-bus	2a	au-
=32	=32	=32	=32	=32	=32	=32	=32
0r	.	0r	.	2d	per-	2b-y	-ri-
.	.	.	.	2e	-ci-	2cc	-bus
.	.	.	.	4f	.	2a	per-
.	.	.	.	4e	.	.	.
.	.	.	.	4d	.	2b-y	-ci-
.	.	.	.	4c	.	.	.
=33	=33	=33	=33	=33	=33	=33	=33
0r	.	0r	.	2e	-pe	4cc	.
.	.	.	.	.	.	4b-y	.
.	.	.	.	1d	ver-	4a	.
.	.	.	.	.	.	4g	.
.	.	.	.	.	.	2b-y	-pe
.	.	.	.	2c	-ba	[2a	ver-
=34	=34	=34	=34	=34	=34	=34	=34
0r	.	2r	.	2d	o-	2a]	.
.	.	2G	au-	2.e	.	2g	-ba
.	.	2A	-ri-	.	.	2f	o-
.	.	.	.	4d	.	.	.
.	.	2B-y	-bus	[2d	-ris	4e	-ris
.	.	.	.	.	.	4d	.
=35	=35	=35	=35	=35	=35	=35	=35
1r	.	2G	per-	2d]	.	1e	me-
.	.	2A	.	2c	me-	.	.
2r	.	2B-y	.	2d	-i,	2d	-i,
2D	au-	2A	-ci-	2f	au-	2a	au-
=36	=36	=36	=36	=36	=36	=36	=36
2E	-ri-	1c	-pe	2e	-ri-	2g	-ri-
2F	-bus	.	.	2c	-bus	1a	-bus
2D	per-	1B-y	ver-	2f	per-	.	.
2E	-ci-	.	.	2e	-ci-	2g	per-
=37	=37	=37	=37	=37	=37	=37	=37
2F	-pe	1A	-ba	2c	-pe	2a	-ci-
2D	ver-	.	.	2d	ver-	2f	-pe
2E-X	-ba	1G	o-	2B-y	-ba	2g	ver-
2C	o-	.	.	[2e-i	o-	2cc	-ba
=38	=38	=38	=38	=38	=38	=38	=38
1D	-ris	2.d	.	4e-]	.	2b-y	o-
.	.	.	.	4d	.	.	.
.	.	.	.	1d	-ris	1a	-ris
.	.	4c	.	.	.	.	.
1E-i	me-	2B-y	.	.	.	.	.
.	.	2G	-ris	2c	.	[2g	me-
=39	=39	=39	=39	=39	=39	=39	=39
1D	-i.	1A	me-	1d	me-	2g]	.
.	.	.	.	.	.	2f#i	.
1r	.	[1G	-i.	[1d	-i.	1g	-i.
=40	=40	=40	=40	=40	=40	=40	=40
1.G	Quo-	1G]	.	1d]	.	1.b-y	Quo-
.	.	1r	.	[1g	Quo-	.	.
2G	-ni-	.	.	.	.	2b-y	-ni-
=41	=41	=41	=41	=41	=41	=41	=41
0G	-am	1.d	Quo-	2g]	.	0b-y	-am
.	.	.	.	2g	-ni-	.	.
.	.	.	.	1g	-am	.	.
.	.	2d	-ni-	.	.	.	.
=42	=42	=42	=42	=42	=42	=42	=42
1.D	.	1d	-am	1.f	a-	1.a	a-
.	.	1d	al-	.	.	.	.
2D	a-	.	.	2f	-li-	2a	-li-
=43	=43	=43	=43	=43	=43	=43	=43
2F	-li-	2.d	-i-	2f	-e-	2a	-e-
2G	.	.	.	1d	.	1b-y	.
.	.	4e	.	.	.	.	.
1A	-e-	4f	.	.	.	.	.
.	.	4e	.	.	.	.	.
.	.	[2f	.	2c	.	[2a	.
=44	=44	=44	=44	=44	=44	=44	=44
1B-y	.	4f]	.	1d	.	2a]	.
.	.	4e	.	.	.	.	.
.	.	1d	-e-	.	.	2g	.
1A	-ni	.	.	1e	.	[1a	-ni
.	.	2c#i	.	.	.	.	.
=45	=45	=45	=45	=45	=45	=45	=45
2r	.	2d	-ni	0f	-ni	0a]	.
1D	in-	1d	in-	.	.	.	.
2D	-sur-	2d	-sur-	.	.	.	.
=46	=46	=46	=46	=46	=46	=46	=46
2E	-re-	2c	-re-	0r	.	0r	.
2G	-xe-	2B-y	-xe-	.	.	.	.
2F	-runt	2A	-runt	.	.	.	.
[2D	ad-	[2F	ad-	.	.	.	.
=47	=47	=47	=47	=47	=47	=47	=47
4D]	.	4F]	.	0r	.	0r	.
4E	.	4G	.	.	.	.	.
4F	.	4A	.	.	.	.	.
4D	.	4B-y	.	.	.	.	.
2E	.	2c	.	.	.	.	.
2D	-ver-	[2B-y	-ver-	.	.	.	.
=48	=48	=48	=48	=48	=48	=48	=48
1C	-sum	2B-]	.	1r	.	1r	.
.	.	2A	-sum	.	.	.	.
[1BB-y	me,	[1B-y	me,	2r	.	2r	.
.	.	.	.	[2d	in-	[2dd	in-
=49	=49	=49	=49	=49	=49	=49	=49
1BB-]	.	1B-]	.	2d]	.	2dd]	.
.	.	.	.	2d	-sur-	2dd	-sur-
1r	.	1r	.	2e	-re-	2cc	-re-
.	.	.	.	2g	-xe-	2b-y	-xe-
=50	=50	=50	=50	=50	=50	=50	=50
0r	.	0r	.	4f	-runt	2a	-runt
.	.	.	.	4e	.	.	.
.	.	.	.	4d	.	2.f	ad-
.	.	.	.	4c	.	.	.
.	.	.	.	4d	.	.	.
.	.	.	.	4e	.	4g	.
.	.	.	.	4f	.	4a	.
.	.	.	.	4d	.	4b-y	.
=51	=51	=51	=51	=51	=51	=51	=51
0r	.	0r	.	2e	ad-	2cc	.
.	.	.	.	2d	-ver-	1b-y	-ver-
.	.	.	.	1c	-sum	.	.
.	.	.	.	.	.	2a	-sum
=52	=52	=52	=52	=52	=52	=52	=52
2r	.	2r	.	2B-y	me,	2b-y	me,
1BB-y	in-	1d	in-	1f	in-	1b-y	in-
2BB-y	-sur-	2d	-sur-	2f	-sur-	2b-y	-sur-
=53	=53	=53	=53	=53	=53	=53	=53
2F	-re-	2c	-re-	2f	-re-	2a	-re-
2G	-xe-	2B-y	-xe-	2d	-xe-	2g	-xe-
2D	-runt	2A	-runt	2d	-runt	4f	.
.	.	.	.	.	.	4g	.
[2F	ad-	[2A	ad-	2c	ad-	4a	.
.	.	.	.	.	.	4b-y	.
=54	=54	=54	=54	=54	=54	=54	=54
2F]	.	2A]	.	0f	-ver-	2cc	runt
2BB-y	-ver-	2B-y	-ver-	.	.	2.dd	ad-
1BB-y	-sum	1d	-sum	.	.	.	.
.	.	.	.	.	.	4cc	.
.	.	.	.	.	.	[2b-y	-ver-
=55	=55	=55	=55	=55	=55	=55	=55
1F	.	1c	.	1f	-sum	2b-]	.
.	.	.	.	.	.	2a	sum
1BB-y	me	1B-y	me	1d	me	1b-y	me
=56	=56	=56	=56	=56	=56	=56	=56
2r	.	2r	.	2r	.	2r	.
2BB-y	et	2d	et	2f	et	2b-y	et
1BB-y	for-	1d	for-	1f	for-	1b-y	for-
=57	=57	=57	=57	=57	=57	=57	=57
1.F	-tes	1.c	-tes	1.f	-tes	1.a	-tes
2F	quae-	2c	quae-	2f	quae-	2a	quae-
=58	=58	=58	=58	=58	=58	=58	=58
1F	-si-	1c	-si-	1f	-si-	1a	-si-
1D	-e-	1d	-e-	1f	-e-	1a	-e-
=59	=59	=59	=59	=59	=59	=59	=59
1.A	-runt	1.c	-runt	0e	-runt	1a	-runt
.	.	.	.	.	.	[1a	a-
2G	a-	2B-y	a-	.	.	.	.
=60	=60	=60	=60	=60	=60	=60	=60
2F	.	2A	.	1.f	a-	1a]	.
2E	-ni-	2G	-ni	.	.	.	.
1D	-mam	2F	mam	.	.	1b-y	-ni-
.	.	[2B-y	me-	2f	-ni-	.	.
=61	=61	=61	=61	=61	=61	=61	=61
0C	me-	2B-]	.	1e	-mam	1cc	-mam
.	.	4A	.	.	.	.	.
.	.	4G	.	.	.	.	.
.	.	1A	.	1e	me-	1cc	me-
=62	=62	=62	=62	=62	=62	=62	=62
0BB-y	-am,	0B-y	-am,	0d	-am,	1f	-am,
.	.	.	.	.	.	2r	.
.	.	.	.	.	.	2f	et
=63	=63	=63	=63	=63	=63	=63	=63
0r	.	2r	.	0r	.	2g	non
.	.	2F	et	.	.	2a	pro-
.	.	2G	non	.	.	2.b-y	-po-
.	.	2A	pro-	.	.	.	.
.	.	.	.	.	.	4a	.
=64	=64	=64	=64	=64	=64	=64	=64
0r	.	2B-y	-po-	2r	.	2g	.
.	.	2A	-su-	2c	et	2f	-su-
.	.	1G	-e-	2d	non	1b-y	-e-
.	.	.	.	2e	pro-	.	.
=65	=65	=65	=65	=65	=65	=65	=65
0r	.	2F	-runt	2.f	-po-	2a	-runt
.	.	1B-y	De-	.	.	1dd	De-
.	.	.	.	4e	-su-	.	.
.	.	.	.	4d	-e-	.	.
.	.	.	.	4c	.	.	.
.	.	2A	.	[2f	-runt	2cc	.
=66	=66	=66	=66	=66	=66	=66	=66
0r	.	1G	.	2f]	.	1b-y	.
.	.	.	.	2e	De-	.	.
.	.	1F	-um	1f	-um	1a	-um
=67	=67	=67	=67	=67	=67	=67	=67
0F	An-	0c	an-	0f	an-	0a	an-
=68	=68	=68	=68	=68	=68	=68	=68
1.D	-te	1.d	-te	1.f	-te	1.a	-te
2D	con-	2d	con-	2f	con-	2a	con-
=69	=69	=69	=69	=69	=69	=69	=69
1F	-spec-	0c	-spec-	1f	-spec-	1a	-spec-
1F	-tum	.	.	1f	-tum	1a	-tum
=70	=70	=70	=70	=70	=70	=70	=70
4C	.	1c	-tum	1e	su-	1.g	su-
4D	.	.	.	.	.	.	.
4E	.	.	.	.	.	.	.
4F	.	.	.	.	.	.	.
4G	.	2B-y	.	2.d	.	.	.
4A	.	.	.	.	.	.	.
[2B-y	.	[2d	.	.	.	2f	.
.	.	.	.	4c	.	.	.
=71	=71	=71	=71	=71	=71	=71	=71
4B-]	.	4d]	.	4d	.	0b-y	.
4A	.	4c	.	4e	.	.	.
4G	.	4B-y	.	1f	.	.	.
4F	.	4A	.	.	.	.	.
1G	su-	1B-y	su-	.	.	.	.
.	.	.	.	2e	.	.	.
=72	=72	=72	=72	=72	=72	=72	=72
0F	-um	0c	-um	0f	-um	0a	-um
=73	=73	=73	=73	=73	=73	=73	=73
1.BB-y	ec-	1.B-y	ec-	1.f	ec-	1.dd	ec-
2BB-y	-ce	2B-y	-ce	2f	-ce	2dd	-ce
=74	=74	=74	=74	=74	=74	=74	=74
1C	e-	1G	e-	1e	e-	1cc	e-
1D	-nim	1F	-nim	[1d	-nim	2a	-nim
.	.	.	.	.	.	[2b-y	De-
=75	=75	=75	=75	=75	=75	=75	=75
0E-X	De-	0G	De-	1d]	.	4b-]	.
.	.	.	.	.	.	4a	.
.	.	.	.	.	.	4g	.
.	.	.	.	.	.	4f	.
.	.	.	.	1c	De-	1g	.
=76	=76	=76	=76	=76	=76	=76	=76
1D	-us	1A	-us	1d	-us	1f	-us
1D	ad-	1A	ad-	1d	ad-	1f	ad-
=77	=77	=77	=77	=77	=77	=77	=77
1.G	-iu-	1.B-y	-iu-	1.d	-iu-	1.g	-iu-
2C	-vat	2G	-vat	2c	-vat	2e	-vat
=78	=78	=78	=78	=78	=78	=78	=78
1C	me	1G	me	1c	me	1e	me
1C	et	1c	et	1e	et	1g	et
=79	=79	=79	=79	=79	=79	=79	=79
1.F	Do-	1.c	Do-	1.f	Do-	1.a	Do-
2F	-mi-	2c	-mi-	2f	-mi-	2a	-mi-
=80	=80	=80	=80	=80	=80	=80	=80
1D	-nus	1d	-nus	1f	-nus	1a	-nus
1BB-y	sus-	1d	sus-	1f	sus-	1b-y	sus-
=81	=81	=81	=81	=81	=81	=81	=81
1C	-cep-	1c	-cep-	1e	-cep-	1g	-cep-
1F	-tor	1A	-tor	2c	-tor	1a	-tor
.	.	.	.	[2f	est	.	.
=82	=82	=82	=82	=82	=82	=82	=82
0C	est	1c	.	2f]	.	0g	est
.	.	.	.	4e	.	.	.
.	.	.	.	4d	.	.	.
.	.	1c	est	1e	.	.	.
=83	=83	=83	=83	=83	=83	=83	=83
1D	a-	1A	a-	2.f	a-	2r	.
.	.	.	.	.	.	2f	a-
.	.	.	.	4e	.	.	.
[1G	-ni-	1B-y	-ni-	4d	.	[1b-y	-ni-
.	.	.	.	4c	.	.	.
.	.	.	.	[2e-X	-ni-	.	.
=84	=84	=84	=84	=84	=84	=84	=84
2G]	.	1.G	-me	4e-]	.	2b-]	.
.	.	.	.	4d	.	.	.
2F	-me	.	.	1d	-me	2a	-me
1E	me-	.	.	.	.	1g	me-
.	.	2G	me-	2c	me-	.	.
=85	=85	=85	=85	=85	=85	=85	=85
00D	-e.	00A	-e.	00d	-e.	00f	-e.
==86	==86	==86	==86	==86	==86	==86	==86
*M2/1	*	*M2/1	*	*M2/1	*	*M2/1	*
*met(C|)	*	*met(C|)	*	*met(C|)	*	*met(C|)	*
!!section: Secunda pars: Averte mala
!!!OMD: Secunda pars: Averte mala
0r	.	0r	.	1d	A-	1r	.
.	.	.	.	2d	-ver-	1a	A-
.	.	.	.	2d	-te	.	.
=87	=87	=87	=87	=87	=87	=87	=87
0r	.	0r	.	1f	ma-	2a	-ver-
.	.	.	.	.	.	2a	-te
.	.	.	.	1e	-la	1cc	ma-
=88	=88	=88	=88	=88	=88	=88	=88
0r	.	0r	.	2d	in-	1b-y	-la
.	.	.	.	2g	.	.	.
.	.	.	.	2f	.	2a	in-
.	.	.	.	2d	-i-	[2dd	-i-
=89	=89	=89	=89	=89	=89	=89	=89
0r	.	1r	.	1f	-mi-	4dd]	.
.	.	.	.	.	.	4cc	.
.	.	.	.	.	.	4b-y	.
.	.	.	.	.	.	4a	.
.	.	2r	.	2e	.	4g	.
.	.	.	.	.	.	4a	.
.	.	2d	A-	[2f	.	4b-y	.
.	.	.	.	.	.	4cc	.
=90	=90	=90	=90	=90	=90	=90	=90
0r	.	2d	-ver-	4f]	.	4dd	.
.	.	.	.	4g	.	4ee	.
.	.	2d	-te	1a	-cis	2.ff	-mi-
.	.	1f	ma-	.	.	.	.
.	.	.	.	.	.	4ee	.
.	.	.	.	4g	me-	[2dd	-cis
.	.	.	.	4f	.	.	.
=91	=91	=91	=91	=91	=91	=91	=91
1r	.	1e	.	0g	-is	2dd]	.
.	.	.	.	.	.	2cc#i	me-
1G	A-	1d	-la	.	.	1dd	-is,
=92	=92	=92	=92	=92	=92	=92	=92
2G	-ver-	1g	i-	2r	.	2r	.
2G	-te	.	.	2d	in-	1dd	in-
1B-y	ma-	2f	-ni-	4d	.	.	.
.	.	.	.	4e	.	.	.
.	.	2d	.	4f	.	2dd	-i-
.	.	.	.	4g	.	.	.
=93	=93	=93	=93	=93	=93	=93	=93
1A	-la	2e	.	2a	-i-	2cc	-mi-
.	.	2c	.	2f	-mi-	2a	.
1G	in-	1d	-mi-	[1g	-cis	2b-y	-cis
.	.	.	.	.	.	[2dd	me-
=94	=94	=94	=94	=94	=94	=94	=94
1c	-i-	1e	.	1g]	.	2dd]	.
.	.	.	.	.	.	2cc	.
2B-y	-mi-	2f	-cis	[1b-y	me-	2dd	-is,
2G	-cis	[2g	me-	.	.	[2ee	[me-
=95	=95	=95	=95	=95	=95	=95	=95
1B-y	me-	4g]	.	2b-]	.	2ee]	.
.	.	4f	.	.	.	.	.
.	.	4e	.	2g	.	1dd	.
.	.	4d	.	.	.	.	.
1A	.	1e	.	1a	.	.	.
.	.	.	.	.	.	2cc#i	.
=96	=96	=96	=96	=96	=96	=96	=96
1D	-is,	1d	-is,	1f	-is,	1dd	-is,]
[1D	in	[1f	in	[1a	in-	[1dd	in
=97	=97	=97	=97	=97	=97	=97	=97
2D]	.	2f]	.	2a]	.	2dd]	.
2D	ver-	2f	ver-	2a	-ver-	2dd	ver-
2D	-i-	2f	-i-	2a	-i-	2dd	-i-
2D	-ta-	2f	-ta-	2a	-ta-	2dd	-ta-
=98	=98	=98	=98	=98	=98	=98	=98
1A	-te	1e	-te	1a	-te	1cc	-te
1D	.	1d	.	1f	.	2a	.
.	.	.	.	.	.	[2b-y	tu-
=99	=99	=99	=99	=99	=99	=99	=99
0E-X	tu-	0G	tu-	2e-X	tu-	4b-]	.
.	.	.	.	.	.	4a	.
.	.	.	.	1d	.	4g	.
.	.	.	.	.	.	4f	.
.	.	.	.	.	.	1g	.
.	.	.	.	2c	.	.	.
=100	=100	=100	=100	=100	=100	=100	=100
1D	-a	1A	-a	1d	-a	1f	-a
1D	dis-	1d	dis-	1f	dis-	1a	dis-
=101	=101	=101	=101	=101	=101	=101	=101
1E-X	-per-	2B-y	-per-	1.e-X	-per-	2g	-per-
.	.	2G	-de	.	.	2.cc	.
1C	-de	2.c	il-	.	.	.	.
.	.	.	.	.	.	4b-y	.
.	.	.	.	2e-i	.	4a	.
.	.	4B-y	.	.	.	4g	.
=102	=102	=102	=102	=102	=102	=102	=102
0D	il-	2A	.	0d	-de	2f	.
.	.	2G	.	.	.	1g	-de
.	.	1A	.	.	.	.	.
.	.	.	.	.	.	2f#i	il-
=103	=103	=103	=103	=103	=103	=103	=103
1G	-los,	1G	-los,	1B-y	il-	0g	-los,
1r	.	2r	.	1e-i	.	.	.
.	.	[2c	vo-	.	.	.	.
=104	=104	=104	=104	=104	=104	=104	=104
0r	.	2c]	.	1d	-los,	2r	.
.	.	2B-y	-lun-	.	.	1g	vo-
.	.	2c	-tar-	1r	.	.	.
.	.	2d	-i-	.	.	2f	-lun-
=105	=105	=105	=105	=105	=105	=105	=105
0r	.	1e-i	-e	0r	.	2g	-tar-
.	.	.	.	.	.	2a	-i-
.	.	1d	.	.	.	1b-y	-e
=106	=106	=106	=106	=106	=106	=106	=106
0r	.	2c	sa-	0r	.	1a	sa-
.	.	2.f	-cri-	.	.	.	.
.	.	.	.	.	.	1dd	.
.	.	4e	.	.	.	.	.
.	.	4d	.	.	.	.	.
.	.	4c	.	.	.	.	.
=107	=107	=107	=107	=107	=107	=107	=107
0r	.	4B-y	.	0r	.	2dd	-cri-
.	.	4c	.	.	.	.	.
.	.	4d	.	.	.	2dd	-fi-
.	.	4e	.	.	.	.	.
.	.	2f	.	.	.	2cc	-ca-
.	.	[2g	-fi-	.	.	[2b-y	-bo
=108	=108	=108	=108	=108	=108	=108	=108
0r	.	2g]	.	0r	.	2b-]	.
.	.	4f	.	.	.	4a	.
.	.	4e	.	.	.	4g	.
.	.	2d	.	.	.	4f	.
.	.	.	.	.	.	4g	.
.	.	[2f	-ca-	.	.	4a	.
.	.	.	.	.	.	4b-y	.
=109	=109	=109	=109	=109	=109	=109	=109
0r	.	4f]	.	0r	.	2cc	.
.	.	4e	.	.	.	.	.
.	.	4d	.	.	.	2.dd	ti-
.	.	4c	.	.	.	.	.
.	.	1B-y	-bo	.	.	.	.
.	.	.	.	.	.	4cc	.
.	.	.	.	.	.	[2b-y	.
=110	=110	=110	=110	=110	=110	=110	=110
1r	.	1c	ti-	1r	.	2b-]	.
.	.	.	.	.	.	2a	.
2r	.	1B-y	-bi	2r	.	2b-y	-bi
[2G	et	.	.	[2g	et	[2b-y	et
=111	=111	=111	=111	=111	=111	=111	=111
2G]	.	2r	.	2g]	.	2b-]	.
2G	con-	1d	et	2g	con-	2b-y	con-
2G	-fi-	.	.	2g	-fi-	2b-y	-fi-
2G	-te-	2d	con-	2g	-te-	2b-y	-te-
=112	=112	=112	=112	=112	=112	=112	=112
1D	-bor	2d	-fi-	1f	-bor	1a	-bor
.	.	2d	-te-	.	.	.	.
[1F	no-	1c	-bor	[1f	no-	[1a	no-
=113	=113	=113	=113	=113	=113	=113	=113
2F]	.	1c	no-	2f]	.	2a]	.
2F	-mi-	.	.	2f	-mi-	2a	-mi-
1F	-ni	2c	-mi-	1f	-ni	1a	-ni
.	.	2c	-ni	.	.	.	.
=114	=114	=114	=114	=114	=114	=114	=114
1C	tu-	1c	tu-	1e	tu-	1g	tu-
1G	-o	1B-y	-o	1d	-o	1g	-o
=115	=115	=115	=115	=115	=115	=115	=115
1.G	Do-	1.d	Do-	1.g	Do-	1.b-y	Do-
2D	-mi-	2d	-mi-	2f	-mi-	2a	-mi-
=116	=116	=116	=116	=116	=116	=116	=116
1D	-ne	1d	-ne	1f	-ne	1a	-ne
[1BB-y	quo-	[1d	quo-	[1f	quo-	[1b-y	[quo-
=117	=117	=117	=117	=117	=117	=117	=117
2BB-]	.	2d]	.	2f]	.	2b-]	.
2BB-y	-ni-	2d	-ni-	2f	-ni-	2b-y	-ni-
1F	-am	1c	-am	1f	-am	1a	-am]
=118	=118	=118	=118	=118	=118	=118	=118
1G	bo-	1B-y	bo-	1d	bo-	1g	bo-
1D	-num	1A	-num	[1d	-num	1f	-num
=119	=119	=119	=119	=119	=119	=119	=119
1G	.	1B-y	.	1d]	.	1g	.
[1C	est.	1c	est.	[1e	est.	[1g	est.
=120	=120	=120	=120	=120	=120	=120	=120
1C]	.	2r	.	0e_	.	0g_	.
.	.	1G	Quo-	.	.	.	.
2r	.	.	.	.	.	.	.
[2C	Quo-	2G	-ni-	.	.	.	.
=121	=121	=121	=121	=121	=121	=121	=121
2C]	.	2G	-am	1e]	.	1g]	.
2C	-ni-	2G	ex	.	.	.	.
2C	-am	1c	om-	1r	.	1r	.
2C	ex	.	.	.	.	.	.
=122	=122	=122	=122	=122	=122	=122	=122
1F	om-	2A	-ni	0r	.	0r	.
.	.	1A	tri-	.	.	.	.
2D	-ni	.	.	.	.	.	.
2D	tri-	2B-y	-bu-	.	.	.	.
=123	=123	=123	=123	=123	=123	=123	=123
2E	.	2G	-la-	0r	.	0r	.
2C	-bu-	2A	.	.	.	.	.
2D	-la-	2B-y	.	.	.	.	.
2E	.	[2c	.	.	.	.	.
=124	=124	=124	=124	=124	=124	=124	=124
2.F	.	4c]	.	0r	.	0r	.
.	.	4B-y	.	.	.	.	.
.	.	4A	.	.	.	.	.
4E	.	4G	.	.	.	.	.
2D	.	2F	.	.	.	.	.
2BB-y	-ti-	2B-y	-ti-	.	.	.	.
=125	=125	=125	=125	=125	=125	=125	=125
1C	-o-	2B-y	-o-	1r	.	1r	.
.	.	2A	.	.	.	.	.
1BB-y	-ne	1B-y	-ne	2r	.	2r	.
.	.	.	.	2d	E-	2f	E-
=126	=126	=126	=126	=126	=126	=126	=126
0r	.	0r	.	2g	-ri-	2b-y	-ri-
.	.	.	.	2f	-pu-	2cc	-pu-
.	.	.	.	4d	.	1dd	-is-
.	.	.	.	4e	.	.	.
.	.	.	.	4f	.	.	.
.	.	.	.	4g	.	.	.
=127	=127	=127	=127	=127	=127	=127	=127
1r	.	1r	.	2a	.	2cc	-ti
.	.	.	.	1g	-is-	2b-y	.
2r	.	2r	.	.	.	1a	me
2F	e-	2A	e-	2f	-ti	.	.
=128	=128	=128	=128	=128	=128	=128	=128
2G	-ri-	2B-y	-ri-	1e	me	0r	.
2A	-pu-	2c	-pu-	.	.	.	.
4D	.	1d	-is-	1r	.	.	.
4E	.	.	.	.	.	.	.
4F	.	.	.	.	.	.	.
4G	.	.	.	.	.	.	.
=129	=129	=129	=129	=129	=129	=129	=129
2A	.	2c	.	1r	.	0r	.
1G	-is-	2B-y	.	.	.	.	.
.	.	1A	-ti-	1r	.	.	.
2F#i	-ti	.	.	.	.	.	.
=130	=130	=130	=130	=130	=130	=130	=130
2G	me	2G	-me	2r	.	2r	.
1G	et	1d	et	1g	et	1b-y	et
2G	su-	2d	su-	2g	su-	2b-y	su-
=131	=131	=131	=131	=131	=131	=131	=131
2B-y	-per	2d	-per	2f	-per	2b-y	-per
2B-y	in-	2d	in-	2f	in-	2b-y	in-
2F	-i-	2c	-i-	2f	-i-	2a	-i-
2F	-mi-	2c	-mi-	2f	-mi-	2a	-mi-
=132	=132	=132	=132	=132	=132	=132	=132
1G	-cos	1B-y	-cos	2d	-cos	1b-y	-cos
.	.	.	.	2.e-X	.	.	.
2F	me-	2c	me-	.	.	1a	me-
.	.	.	.	4d	.	.	.
2D	.	2F	.	[2d	me-	.	.
=133	=133	=133	=133	=133	=133	=133	=133
1E	.	1G	.	2d]	.	1g	.
.	.	.	.	2c#i	.	.	.
1D	-os	2A	-os	[1d	-os	1f	-os
.	.	2F	de-	.	.	.	.
=134	=134	=134	=134	=134	=134	=134	=134
2r	.	2G	-spe-	2d]	.	2r	.
2D	de-	2A	-xit	2d	de-	2f	de-
2G	-spe-	2B-y	o-	2d	-spe-	2g	-spe-
2F	-xit	2c	-cu-	2f	-xit	2a	-xit
=135	=135	=135	=135	=135	=135	=135	=135
2D	o-	2d	-lus	2f	o-	2b-y	o-
2.F	-cu-	2.c	.	2.f	-cu-	1a	-cu-
4G	.	4B-y	.	4e	.	.	.
2E	-lus	4A	.	2c	-lus	[2g	-lus
.	.	4G	.	.	.	.	.
=136	=136	=136	=136	=136	=136	=136	=136
1D	me-	1A	me-	1d	me-	2g]	.
.	.	.	.	.	.	2f#i	me-
1G	-us,	1G	-us,	1d	-us	1g	-us,
=137	=137	=137	=137	=137	=137	=137	=137
2r	.	2r	.	2r	.	2r	.
1G	et	1d	et	1g	et	1b-y	et
2G	su-	2d	su-	2g	su-	2b-y	su-
=138	=138	=138	=138	=138	=138	=138	=138
2B-y	-per	2d	-per	2f	-per	2b-y	-per
2B-y	in-	2d	in-	2f	in-	2b-y	in-
2F	-i-	2c	-i-	2f	-i-	2a	-i-
2F	-mi-	2c	-mi-	2f	-mi-	2a	-mi-
=139	=139	=139	=139	=139	=139	=139	=139
1G	-cos	1B-y	-cos	2d	-cos	1b-y	-cos
.	.	.	.	2.e-X	.	.	.
2F	me-	2c	me-	.	.	1a	me-
.	.	.	.	4d	.	.	.
2D	.	2F	.	[2d	me-	.	.
=140	=140	=140	=140	=140	=140	=140	=140
1E	.	1G	.	2d]	.	1g	.
.	.	.	.	2c#i	.	.	.
1D	-os	2A	-os	[1d	-os	1f	-os
.	.	2F	de-	.	.	.	.
=141	=141	=141	=141	=141	=141	=141	=141
2r	.	2G	-spe-	2d]	.	2r	.
2D	de-	2A	-xit	2d	de-	2f	de-
2G	-spe-	2B-y	o-	2d	-spe-	2g	-spe-
2F	-xit	2c	-cu-	2f	-xit	2a	-xit
=142	=142	=142	=142	=142	=142	=142	=142
2D	o-	2d	-lus	2f	o-	2b-y	o-
2.F	-cu-	2.c	.	2.f	-cu-	1a	-cu-
4G	.	4B-y	.	4e	.	.	.
2E	-lus	4A	.	2c	-lus	[2g	-lus
.	.	4G	.	.	.	.	.
=143	=143	=143	=143	=143	=143	=143	=143
1D	me-	1A	me-	1d	me-	2g]	.
.	.	.	.	.	.	2f#i	me-
[1Gl	-us.	[1Gl	-us.	[1dl	-us.	[1gl	-us.
=144	=144	=144	=144	=144	=144	=144	=144
00G]	.	00G]	.	00d]	.	00g]	.
==	==	==	==	==	==	==	==
*-	*-	*-	*-	*-	*-	*-	*-
!!!system-decoration: [*]
!!!RDF**kern: i = editorial accidental
!!!RDF**kern: l = terminal long
!!!ENC: Simon Frisch
!!!END: 2024/4/20
!!!EED: Benjamin Ory
!!!EEV: 2024/04/20
!!!YEC: Copyright 2024 Simon Frisch, All Rights Reserved
!!!ONB: Translated from MusicXML on 2024/04/20
!!!verovio: header encoded
!!!header-left: Edited by @{ENC} (2024)\n
!!!header-right:
!!!header-center: 